build/svg/cmd/sc_insertrowsafter.svg

<?xml version="1.0" encoding="UTF-8" standalone="no"?>
<svg
   xmlns:dc="http://purl.org/dc/elements/1.1/"
   xmlns:cc="http://creativecommons.org/ns#"
   xmlns:rdf="http://www.w3.org/1999/02/22-rdf-syntax-ns#"
   xmlns:svg="http://www.w3.org/2000/svg"
   xmlns="http://www.w3.org/2000/svg"
   xmlns:sodipodi="http://sodipodi.sourceforge.net/DTD/sodipodi-0.dtd"
   xmlns:inkscape="http://www.inkscape.org/namespaces/inkscape"
   viewBox="0 0 16 16"
   version="1.1"
   id="svg6"
   sodipodi:docname="sc_insertrowsafter.svg"
   inkscape:version="0.92.5 (2060ec1f9f, 2020-04-08)"
   inkscape:export-filename="/home/jupiter007/Libreoffice yaru theme fullcolor/build/cmd/sc_insertrowsafter.png"
   inkscape:export-xdpi="95"
   inkscape:export-ydpi="95">
  <metadata
     id="metadata12">
    <rdf:RDF>
      <cc:Work
         rdf:about="">
        <dc:format>image/svg+xml</dc:format>
        <dc:type
           rdf:resource="http://purl.org/dc/dcmitype/StillImage" />
      </cc:Work>
    </rdf:RDF>
  </metadata>
  <defs
     id="defs10" />
  <sodipodi:namedview
     pagecolor="#ffffff"
     bordercolor="#666666"
     borderopacity="1"
     objecttolerance="10"
     gridtolerance="10"
     guidetolerance="10"
     inkscape:pageopacity="0"
     inkscape:pageshadow="2"
     inkscape:window-width="1920"
     inkscape:window-height="1011"
     id="namedview8"
     showgrid="true"
     inkscape:zoom="32.000001"
     inkscape:cx="-3.3837139"
     inkscape:cy="3.3704225"
     inkscape:window-x="0"
     inkscape:window-y="32"
     inkscape:window-maximized="1"
     inkscape:current-layer="svg6">
    <inkscape:grid
       type="xygrid"
       id="grid822" />
  </sodipodi:namedview>
  <rect
     style="opacity:1;fill:#ffffff;fill-opacity:1;stroke:none;stroke-width:2;stroke-linecap:round;stroke-linejoin:round;stroke-miterlimit:4;stroke-dasharray:none;stroke-opacity:1"
     id="rect820"
     width="10"
     height="10"
     x="-13"
     y="-13"
     transform="matrix(0,-1,-1,0,0,0)" />
  <path
     d="M 2,10 V 7 6 5 C 2,3 2,2 4,2 h 8 c 2,0 2,1 2,3 v 5 z m 11,0 H 11 Z M 13,9 V 7 H 11 V 9 Z M 13,6 V 5 C 13,4 13,3 12,3 h -1 v 1 1 1 z m -3,4 H 7 Z M 10,9 V 7 H 7 V 9 Z M 10,6 V 5 4 3 H 7 V 4 5 6 Z M 6,10 H 3 Z M 6,9 V 7 H 3 V 9 Z M 6,6 V 5 4 3 H 4 C 3,3 3,4 3,5 v 1 z"
     id="path2-0"
     inkscape:connector-curvature="0"
     style="fill:#6d6d6d;fill-opacity:1"
     sodipodi:nodetypes="cccccccccccccccccccccccccccccccccccccccccccccccccccccccccc" />
  <path
     d="M 12,14 H 11.71875 10.28125 10 9 7.71875 6.28125 6 4 C 2,14 2,13 2,11 V 10 9 H 3 4 5 6 6.71875 8 9 10 10.71875 12 h 1 1 v 1 1 c 0,2 0,3 -2,3 z m 0,-1 c 1,0 1,-1 1,-2 v 1.71875 L 12.810116,12.528866 12,11.71875 10.28125,10 H 10 9 8 7.71875 L 8,10.28125 l 1,1 1,1 L 10.71875,13 Z m 1,-1.71875 V 10 H 12 11.71875 L 12,10.28125 Z M 9.28125,13 9,12.71875 l -1,-1 L 6.28125,10 H 6 5 4 3.71875 L 4,10.28125 l 1,1 1,1 L 6.71875,13 H 9 Z m -4,0 L 5,12.71875 l -1,-1 -1,-1 V 11 c 0,1 0,2 1,2 z"
     id="path4"
     inkscape:connector-curvature="0"
     style="fill:#46a926;fill-opacity:1"
     sodipodi:nodetypes="ccccccccccccccccccccccccccccccccccccccccccccccccccccccccccccccccccccc" />
  <circle
     style="opacity:1;vector-effect:none;fill:#46a926;fill-opacity:1;stroke:none;stroke-width:3.49999976;stroke-linecap:butt;stroke-linejoin:round;stroke-miterlimit:4;stroke-dasharray:none;stroke-dashoffset:0;stroke-opacity:1"
     id="path2644"
     cy="3.5"
     cx="12.5"
     r="3.5" />
  <path
     inkscape:connector-curvature="0"
     id="path1063"
     overflow="visible"
     font-weight="400"
     style="color:#000000;font-weight:400;line-height:normal;font-family:sans-serif;text-indent:0;text-align:start;text-decoration:none;text-decoration-line:none;text-decoration-style:solid;text-decoration-color:#000000;text-transform:none;white-space:normal;overflow:visible;isolation:auto;mix-blend-mode:normal;fill:#ffffff;fill-opacity:1;marker:none"
     d="m 12,1 v 2 h -2 v 1 h 2 v 2 h 1 V 4 h 2 V 3 H 13 V 1 Z" />
</svg>

<svg xmlns="http://www.w3.org/2000/svg" viewBox="0 0 16 16"><path fill="#fff" d="M13 13V3H3v10z"/><path d="M2 10V5c0-2 0-3 2-3h8c2 0 2 1 2 3v5zm11 0h-2zm0-1V7h-2v2zm0-3V5c0-1 0-2-1-2h-1v3zm-3 4H7zm0-1V7H7v2zm0-3V3H7v3zm-4 4H3zm0-1V7H3v2zm0-3V3H4C3 3 3 4 3 5v1z" fill="#6d6d6d"/><path d="M12 14H4c-2 0-2-1-2-3V9h12v2c0 2 0 3-2 3zm0-1c1 0 1-1 1-2v1.719l-.19-.19-.81-.81L10.281 10H7.72l.281.281 1 1 1 1 .719.719zm1-1.719V10H11.719l.281.281zM9.281 13L9 12.719l-1-1L6.281 10H3.72l.281.281 1 1 1 1 .719.719H9zm-4 0L5 12.719l-1-1-1-1V11c0 1 0 2 1 2z" fill="#46a926"/><circle cy="3.5" cx="12.5" r="3.5" fill="#46a926"/><path overflow="visible" font-weight="400" style="line-height:normal;text-indent:0;text-align:start;text-decoration-line:none;text-decoration-style:solid;text-decoration-color:#000;text-transform:none;white-space:normal;isolation:auto;mix-blend-mode:normal;marker:none" d="M12 1v2h-2v1h2v2h1V4h2V3h-2V1z" color="#000" font-family="sans-serif" fill="#fff"/></svg>
